usr/share/icons/biglinux-icons-material-dark/22/actions/kstars_grid.svg

<svg xmlns="http://www.w3.org/2000/svg" viewBox="0 0 22 22">
  <defs id="defs3051">
    <style type="text/css" id="current-color-scheme">
      .ColorScheme-Text {
        color:#dedede;
      }
      </style>
  </defs>
 <path 
     style="fill:currentColor;fill-opacity:1;stroke:none" 
     d="M 6.5253906 3 L 9.4277344 4.2792969 C 8.9455822 5.2084417 8.3338024 6.0556227 7.6269531 6.8144531 L 3.8183594 3.0195312 L 3.0117188 3.0195312 L 3.0117188 3.96875 L 6.734375 7.6738281 C 6.0135437 8.2976972 5.2205843 8.8366627 4.359375 9.2675781 L 3.5683594 7.4824219 L 3.5683594 7.4785156 L 3.0292969 6.2226562 L 3.015625 9.2460938 L 3.2402344 9.7519531 C 3.158772 9.782362 3.0823285 9.822956 3 9.8515625 L 3 11.160156 C 3.2534343 11.081317 3.4938266 10.974834 3.7402344 10.880859 L 5.6757812 15.246094 C 4.8141864 15.585098 3.9223154 15.864848 3 16.064453 L 3 17.333984 C 4.0991768 17.112189 5.1575819 16.7826 6.1777344 16.376953 L 7.3125 18.939453 L 8.6445312 18.939453 L 7.2949219 15.892578 C 8.9790715 15.091314 10.522012 14.04517 11.882812 12.800781 L 15.306641 16.208984 C 14.188296 17.24994 12.974599 18.189861 11.669922 19 L 13.890625 19 C 14.696853 18.409962 15.455465 17.761267 16.183594 17.080078 L 18.050781 18.939453 L 18.939453 18.949219 L 18.945312 18.09375 L 17.060547 16.216797 C 17.746287 15.50883 18.401549 14.771156 19 13.986328 L 19 11.837891 C 18.176943 13.098335 17.230344 14.268468 16.1875 15.345703 L 12.767578 11.9375 C 14.100571 10.547021 15.221167 8.9538482 16.076172 7.2050781 L 18.935547 8.4648438 L 18.939453 7.1191406 L 16.572266 6.09375 C 16.977528 5.1057161 17.310766 4.081641 17.542969 3.0175781 L 16.273438 3.0175781 C 16.064803 3.9091886 15.783102 4.7704921 15.443359 5.6035156 L 11.039062 3.6972656 C 11.129806 3.4703041 11.234662 3.2507239 11.3125 3.0175781 L 9.9960938 3.0175781 C 9.9715794 3.0832252 9.9377822 3.1439149 9.9121094 3.2089844 L 9.4316406 3 L 6.5253906 3 z M 10.554688 4.7753906 L 14.947266 6.7089844 C 14.155489 8.3183457 13.119499 9.783968 11.892578 11.066406 L 8.5 7.6855469 C 9.3129558 6.8185093 10.007585 5.8427859 10.554688 4.7753906 z M 7.609375 8.5449219 L 11.007812 11.927734 C 9.7544801 13.065457 8.3384662 14.024464 6.7929688 14.761719 L 4.859375 10.394531 C 5.8591078 9.898314 6.7792215 9.2745429 7.609375 8.5449219 z "
     class="ColorScheme-Text"
     />
</svg>

<svg xmlns="http://www.w3.org/2000/svg" viewBox="0 0 22 22">
<defs id="defs3051">
<style id="current-color-scheme" type="text/css">
.ColorScheme-Text{color:#dedede}
</style>
</defs>
<path d="m6.525 3 2.903 1.28a11.5 11.5 0 0 1-1.801 2.534L3.818 3.02h-.806v.949l3.722 3.705A11.5 11.5 0 0 1 4.36 9.268l-.79-1.786V7.48l-.54-1.256-.013 3.023.224.506c-.081.03-.158.071-.24.1v1.308c.253-.079.494-.185.74-.28l1.936 4.366c-.862.34-1.754.619-2.676.818v1.27c1.1-.222 2.158-.551 3.178-.957l1.135 2.562h1.332l-1.35-3.046a18.7 18.7 0 0 0 4.588-3.092l3.424 3.408A23.7 23.7 0 0 1 11.67 19h2.22a25 25 0 0 0 2.294-1.92l1.867 1.86.888.01.006-.856-1.884-1.877A25 25 0 0 0 19 13.987v-2.15a23.6 23.6 0 0 1-2.812 3.509l-3.42-3.408a18.7 18.7 0 0 0 3.308-4.733l2.86 1.26.003-1.346-2.367-1.025c.406-.988.739-2.012.971-3.076h-1.27c-.208.891-.49 1.752-.83 2.586L11.04 3.697c.09-.227.196-.446.274-.68H9.996c-.024.066-.058.127-.084.192L9.432 3zm4.03 1.775 4.392 1.934a17.5 17.5 0 0 1-3.054 4.357L8.5 7.686a12.8 12.8 0 0 0 2.055-2.91m-2.946 3.77 3.399 3.383a17.5 17.5 0 0 1-4.215 2.834l-1.934-4.367c1-.497 1.92-1.12 2.75-1.85" class="ColorScheme-Text" style="fill:currentColor;fill-opacity:1;stroke:none"/>
</svg>
